dist/icons/svgs/pause-solid.svg

<svg xmlns="http://www.w3.org/2000/svg" width="24" height="24" fill="currentcolor" class="icon-pause-solid" viewBox="0 0 24 24">
  <path d="M8.125 4.5H9.375C10.3906 4.5 11.25 5.35938 11.25 6.375V17.625C11.25 18.6797 10.3906 19.5 9.375 19.5H8.125C7.07031 19.5 6.25 18.6797 6.25 17.625V6.375C6.25 5.35938 7.07031 4.5 8.125 4.5ZM15.625 4.5H16.875C17.8906 4.5 18.75 5.35938 18.75 6.375V17.625C18.75 18.6797 17.8906 19.5 16.875 19.5H15.625C14.5703 19.5 13.75 18.6797 13.75 17.625V6.375C13.75 5.35938 14.5703 4.5 15.625 4.5Z"/>
</svg>

<svg xmlns="http://www.w3.org/2000/svg" width="24" height="24" fill="currentColor" class="icon-pause-solid" viewBox="0 0 24 24">
  <path d="M8.125 4.5h1.25c1.016 0 1.875.86 1.875 1.875v11.25c0 1.055-.86 1.875-1.875 1.875h-1.25a1.85 1.85 0 0 1-1.875-1.875V6.375c0-1.016.82-1.875 1.875-1.875m7.5 0h1.25c1.016 0 1.875.86 1.875 1.875v11.25c0 1.055-.86 1.875-1.875 1.875h-1.25a1.85 1.85 0 0 1-1.875-1.875V6.375c0-1.016.82-1.875 1.875-1.875"/>
</svg>
